icons/svg/shopping/craft.svg

<?xml version="1.0" encoding="UTF-8" standalone="no"?>
<!-- Created with Inkscape (http://www.inkscape.org/) -->

<svg
   xmlns:dc="http://purl.org/dc/elements/1.1/"
   xmlns:cc="http://creativecommons.org/ns#"
   xmlns:rdf="http://www.w3.org/1999/02/22-rdf-syntax-ns#"
   xmlns:svg="http://www.w3.org/2000/svg"
   xmlns="http://www.w3.org/2000/svg"
   xmlns:sodipodi="http://sodipodi.sourceforge.net/DTD/sodipodi-0.dtd"
   xmlns:inkscape="http://www.inkscape.org/namespaces/inkscape"
   version="1.0"
   width="580"
   height="580"
   id="svg2"
   sodipodi:version="0.32"
   inkscape:version="0.91 r"
   sodipodi:docname="craft.svg"
   inkscape:output_extension="org.inkscape.output.svg.inkscape">
  <defs
     id="defs22">
    <inkscape:perspective
       sodipodi:type="inkscape:persp3d"
       inkscape:vp_x="0 : 290 : 1"
       inkscape:vp_y="0 : 1000 : 0"
       inkscape:vp_z="580 : 290 : 1"
       inkscape:persp3d-origin="290 : 193.33333 : 1"
       id="perspective24" />
  </defs>
  <metadata
     id="metadata10">
    <rdf:RDF>
      <cc:Work
         rdf:about="">
        <dc:format>image/svg+xml</dc:format>
        <dc:type
           rdf:resource="http://purl.org/dc/dcmitype/StillImage" />
        <cc:license
           rdf:resource="http://web.resource.org/cc/PublicDomain" />
        <dc:language>en</dc:language>
      </cc:Work>
    </rdf:RDF>
  </metadata>
  <sodipodi:namedview
     inkscape:window-height="1006"
     inkscape:window-width="1920"
     inkscape:pageshadow="2"
     inkscape:pageopacity="0.0"
     guidetolerance="10.0"
     gridtolerance="10.0"
     objecttolerance="10.0"
     borderopacity="1.0"
     bordercolor="#666666"
     pagecolor="#ffffff"
     id="base"
     showgrid="false"
     inkscape:zoom="0.70710678"
     inkscape:cx="239.05651"
     inkscape:cy="369.96512"
     inkscape:window-x="1920"
     inkscape:window-y="0"
     inkscape:current-layer="svg2"
     inkscape:window-maximized="1" />
  <g
     id="g1327">
    <path
       d="M 66.275,1.768 C 24.94,1.768 1.704,23.139 1.704,66.804 L 1.704,516.927 C 1.704,557.771 22.598,579.156 63.896,579.156 L 515.92,579.156 C 557.227,579.156 578.149,558.84 578.149,516.927 L 578.149,66.804 C 578.149,24.203 557.227,1.768 514.627,1.768 C 514.624,1.768 66.133,1.625 66.275,1.768 z"
       style="fill:#111111;stroke:#eeeeee;stroke-width:3.40799999"
       id="path1329" />
  </g>
  <g
     id="g2319"
     transform="translate(879.29125,36.805119)">
    <path
       id="path2323"
       style="fill:#ffffff;stroke:none"
       d="" />
  </g>
  <g
     id="g2325"
     transform="translate(879.29125,36.805119)">
    <path
       id="path2329"
       style="fill:#ffffff;stroke:none"
       d="" />
  </g>
  <path
     inkscape:connector-curvature="0"
     d="m 127.15844,79.127938 c -52.408741,0 -71.462203,40.323432 -71.462203,67.361922 0,21.24653 8.017821,50.03993 46.274703,67.06902 6.48548,2.89598 13.27322,5.45456 20.20857,8.20059 31.93812,12.65044 65.10305,25.81682 93.72092,67.94765 -28.55667,42.37545 -61.56649,55.80566 -93.72092,68.53342 -6.94472,2.74603 -13.72309,5.30461 -20.20857,8.20059 -38.266248,17.04783 -46.274703,45.84124 -46.274703,67.06903 0,27.03848 19.053462,67.36191 71.462203,67.36191 54.8736,0 73.21946,-47.41342 73.21946,-69.11918 0,-14.44239 -6.27696,-34.62754 -18.4513,-45.39607 1.07779,-0.82474 2.69681,-1.96814 5.56468,-3.51454 15.30462,-8.24744 79.48236,-47.08538 82.88443,-49.20347 L 520.4934,149.12575 c 2.32428,-1.72446 3.73244,-4.43534 3.80741,-7.32194 0.075,-2.88661 -1.28397,-5.78726 -3.51453,-7.61483 -13.83321,-11.32148 -29.62752,-16.98691 -47.15333,-16.98691 -32.09942,0 -58.26161,19.53378 -59.16133,20.20857 L 265.98255,243.7253 c -7.96338,-4.84172 -63.92442,-38.72661 -78.49127,-46.56757 -2.87723,-1.55577 -4.48689,-2.69917 -5.56468,-3.51454 12.18372,-10.76853 18.4513,-30.95367 18.4513,-45.39607 0,-21.69639 -18.34586,-69.119182 -73.21946,-69.119182 z m -2.6359,35.145342 c 20.0469,0 36.08958,13.61532 38.367,32.50946 1.26523,10.48736 -1.6987,21.04502 -8.49346,28.70202 -6.10123,6.87912 -14.42365,10.5436 -23.43023,10.5436 -19.52207,0 -37.497739,-15.58344 -39.831389,-34.85246 -1.1434,-9.58765 1.703373,-18.76292 7.907703,-25.77325 6.288666,-7.09468 15.630306,-11.12937 25.480376,-11.12937 z m 146.73181,150.1331 c 11.60309,0 20.90757,9.30448 20.90757,20.90758 0,11.60312 -9.30448,20.90757 -20.90757,20.90757 -11.6031,0 -20.90758,-9.30445 -20.90758,-20.90757 0,-11.6031 9.30448,-20.90758 20.90758,-20.90758 z m 80.42237,43.80454 -62.96873,46.27471 125.47075,88.10374 c 1.09653,0.83412 27.36417,20.20858 59.45421,20.20858 17.51644,0 33.32012,-5.66543 47.15333,-16.98692 2.23056,-1.82756 3.58952,-4.71885 3.51453,-7.61483 -0.0749,-2.89597 -1.48313,-5.60685 -3.80741,-7.32194 z m -220.71087,85.76073 c 9.00658,0 17.329,3.65511 23.43023,10.54359 6.78539,7.63826 9.75869,18.2053 8.49346,28.70204 -2.27742,18.89414 -18.32947,32.50944 -38.367,32.50944 -9.85007,0 -19.20108,-4.04406 -25.480376,-11.12935 -6.20433,-7.00096 -9.06047,-16.20435 -7.907703,-25.77326 2.324275,-19.27839 20.309319,-34.85246 39.831389,-34.85246 z"
     id="path4"
     style="fill:#ffffff;fill-opacity:1;stroke:none"
     sodipodi:nodetypes="sscccccsssccccccsccccsssccsccsssssscccsccccscssccs" />
</svg>

<svg width="580" height="580" viewBox="0 0 580 580" fill="none" xmlns="http://www.w3.org/2000/svg">
<g clip-path="url(#clip0)">
<path d="M66.2751 1.76766C24.9401 1.76766 1.7041 23.1387 1.7041 66.8037V516.927C1.7041 557.771 22.5981 579.156 63.8961 579.156H515.92C557.227 579.156 578.149 558.84 578.149 516.927V66.8037C578.149 24.2027 557.227 1.76766 514.627 1.76766C514.624 1.76766 66.1331 1.62466 66.2751 1.76766Z" fill="#111111" stroke="#EEEEEE" stroke-width="3.408"/>
<path d="M127.158 79.1279C74.7498 79.1279 55.6963 119.451 55.6963 146.49C55.6963 167.736 63.7141 196.53 101.971 213.559C108.456 216.455 115.244 219.013 122.18 221.759C154.118 234.41 187.283 247.576 215.9 289.707C187.344 332.083 154.334 345.513 122.18 358.241C115.235 360.987 108.456 363.545 101.971 366.441C63.7047 383.489 55.6963 412.282 55.6963 433.51C55.6963 460.549 74.7498 500.872 127.158 500.872C182.032 500.872 200.378 453.459 200.378 431.753C200.378 417.311 194.101 397.125 181.927 386.357C183.004 385.532 184.623 384.389 187.491 382.842C202.796 374.595 266.974 335.757 270.376 333.639L520.493 149.126C522.818 147.401 524.226 144.69 524.301 141.804C524.376 138.917 523.017 136.017 520.786 134.189C506.953 122.867 491.159 117.202 473.633 117.202C441.534 117.202 415.371 136.736 414.472 137.411L265.983 243.725C258.019 238.884 202.058 204.999 187.491 197.158C184.614 195.602 183.004 194.459 181.927 193.643C194.11 182.875 200.378 162.69 200.378 148.247C200.378 126.551 182.032 79.1279 127.158 79.1279V79.1279ZM124.523 114.273C144.569 114.273 160.612 127.889 162.89 146.783C164.155 157.27 161.191 167.828 154.396 175.485C148.295 182.364 139.972 186.028 130.966 186.028C111.444 186.028 93.4682 170.445 91.1345 151.176C89.9911 141.588 92.8379 132.413 99.0422 125.403C105.331 118.308 114.673 114.273 124.523 114.273V114.273ZM271.254 264.406C282.858 264.406 292.162 273.711 292.162 285.314C292.162 296.917 282.858 306.222 271.254 306.222C259.651 306.222 250.347 296.917 250.347 285.314C250.347 273.711 259.651 264.406 271.254 264.406ZM351.677 308.211L288.708 354.486L414.179 442.589C415.275 443.423 441.543 462.798 473.633 462.798C491.149 462.798 506.953 457.133 520.786 445.811C523.017 443.983 524.376 441.092 524.301 438.196C524.226 435.3 522.818 432.589 520.493 430.874L351.677 308.211ZM130.966 393.972C139.972 393.972 148.295 397.627 154.396 404.515C161.182 412.153 164.155 422.721 162.89 433.217C160.612 452.111 144.56 465.727 124.523 465.727C114.673 465.727 105.322 461.683 99.0422 454.597C92.8379 447.596 89.9817 438.393 91.1345 428.824C93.4588 409.546 111.444 393.972 130.966 393.972Z" fill="white"/>
</g>
<defs>
<clipPath id="clip0">
<path d="M0 0H580V580H0V0Z" fill="white"/>
</clipPath>
</defs>
</svg>
